X:1
T:Lytham, LM
T:Lytham, LM
T:James Malley
T:Public Domain Courtesy of the Cyber Hymnal™
C:James Malley
Z:Public Domain
Z:Courtesy of the Cyber Hymnal™
%%score ( 1 2 ) ( 3 4 )
L:1/8
Q:1/4=125
M:4/4
K:Eb
V:1 treble 
V:2 treble 
V:3 bass 
V:4 bass 
V:1
 [EG]4 [E^F]2 [EG]2 | [EA]4 [EG]4 | (G2 F2) (E2 [DF]2) [EG]8 | [EA]4 [EB]2 [Ec]2 | [GB]4 [EG]4 | %5
 [EG]4 ([DF]2 E2) | [DF]8 | [EG]4 [E^F]2 [EG]2 | [EA]4 [EG]4 | ([EA]2 [GB]2) ([Ec]2 d2) | [Ge]8 | %11
 [Ee]4 [Ed]2 [Ec]2 | B6 [FA]2 | [EG]4 [DF]4 | E8 |] x8 |] %16
V:2
 x8 | x8 | D4 E2 x10 | x8 | x8 | x6 E2 | x8 | x8 | x8 | x6 (BA) | x8 | x8 | (G3 F E2) x2 | x8 | %14
 E8 |] x8 |] %16
V:3
 [E,B,]4 [E,=A,]2 [E,B,]2 | (C2 _C2) [E,B,]4 | (B,2 A,2) (G,2 A,2) x8 | [E,B,]8 | %4
 [A,,C]4 [E,G,]2 [A,,C]2 | [E,E]4 [E,B,]4 | [B,,B,]4 (A,2 G,2) | [B,,B,]8 | %8
 [E,B,]4 [E,=A,]2 [E,B,]2 | (C2 _C2) [E,B,]4 | ([A,C]2 [E,E]2) E2 [F,F]2 | [E,B,]8 | %12
 [E,C]4 [E,B,]2 [E,A,]2 | B,6 [A,C]2 | B,4 [B,,A,]4 |] [E,G,]8 |] %16
V:4
 x8 | E,4 x4 | B,,4 B,,4 x8 | x8 | x8 | x8 | x4 B,,4 | (B,,2 C,2 D,2 B,,2) | x8 | E,4 x4 | %10
 x4 A,G, x2 | x8 | x8 | (E,3 F, G,2) x2 | B,4 x4 |] x8 |] %16

